!!!COM: Mozart, Wolfgang Amadeus
!!!OPR: Symphony in C Major
!!!OTL:
!!!OMV: 3
!!!SCT: K 425
!!!SCA: Chronologisch-thematisches Verzeichnis sämtlicher Tonwerke Wolfgang Amade Mozarts (L. von Köchel; 1862, 2/1905, 3/1937, 1947)
!!!YOR: Breitkopf & Härtel Edition
!!!EED: Frances Bennion
!!!ENC: Frances Bennion
!!!CDT: 1756/1/27/-1791/12/5/
!!!OCY: Österreich
!!!YEC: Copyright (c) 1994, 2000 Center for Computer Assisted Research in the Humanities
!!!YEM: Rights to all derivative editions reserved.
!!!YEM: Refer to licensing agreement for further details.
!!!YEN: United States of America
**kern	**kern	**kern	**kern	**kern	**kern	**kern	**kern	**kern	**kern	**kern	**kern	**kern
*k[]	*k[]	*k[]	*k[]	*k[]	*k[]	*k[]	*k[]	*k[]	*k[]	*k[]	*k[]	*k[]
*C:	*C:	*C:	*C:	*C:	*C:	*C:	*C:	*C:	*C:	*C:	*C:	*C:
*clefF	*clefF	*clefF	*clefC3	*clefF4	*clefF	*clefF4	*clefF4	*clefF	*clefF	*clefF	*clefF	*clefF4
*M3/4	*M3/4	*M3/4	*M3/4	*M3/4	*M3/4	*M3/4	*M3/4	*M3/4	*M3/4	*M3/4	*M3/4	*M3/4
*tb16	*tb16	*tb16	*tb16	*tb16	*tb16	*tb16	*tb16	*tb16	*tb16	*tb16	*tb16	*tb16
=0-	=0-	=0-	=0-	=0-	=0-	=0-	=0-	=0-	=0-	=0-	=0-	=0-
2r	2r	2r	2r	2r	2r	2r	2r	2r	2r	2r	2r	2.r
4gg	4gg	4g	4r	4r	4gg	4r	4r	4r	4r	4r	4r	.
=1	=1	=1	=1	=1	=1	=1	=1	=1	=1	=1	=1	=1
2gg	2gg	2g	4r	4r	2gg	4r	4r	4gg	4ee	4cc	4e	4C
.	.	.	4e	4e	.	4e	4e	4ee	4cc	2r	2r	2r
8ee	8ee	8e	8c	8c	8ee	8c	8c	4r	4r	.	.	.
8r	8r	8r	8r	8r	8r	8r	8r	.	.	.	.	.
=2	=2	=2	=2	=2	=2	=2	=2	=2	=2	=2	=2	=2
2ee	2ee	2e	4r	4r	2ee	4r	4r	4ee	4r	4cc	4e	4C
.	.	.	4c	4c	.	4c	4c	4cc	4cc	2r	2r	2r
8cc	8cc	8c	8A	8A	8cc	8A	8A	4r	4c	.	.	.
8r	8r	8r	8r	8r	8r	8r	8r	.	.	.	.	.
=3	=3	=3	=3	=3	=3	=3	=3	=3	=3	=3	=3	=3
4cc	4cc	4c	4r	4r	4cc	4r	4r	4r	4r	2.r	2.r	2.r
4ff	4ff	4f	4c	4A	4ff	4A	4A	4cc	4c	.	.	.
4aa	4aa	4a	4c	4F	4aa	4F	4F	4cc	4c	.	.	.
=4	=4	=4	=4	=4	=4	=4	=4	=4	=4	=4	=4	=4
4ee	4cc	4e	2g	4G	4cc	4G	4G	4ee	4cc	2g	2g	4GG
4dd	4b	4d	.	4GG	4b	4GG	4GG	4dd	4g	.	.	2r
8.g	8.g 8.G	4r	4r	4r	8.g	4r	4r	8.g	8.g	4r	4r	.
16g	16g 16G	.	.	.	16g	.	.	16g	16g	.	.	.
=5	=5	=5	=5	=5	=5	=5	=5	=5	=5	=5	=5	=5
4g	4g 4G	2.r	2.r	2.r	4g	2.r	2.r	4g	4g	2.r	2.r	2.r
4g	4g 4G	.	.	.	4g	.	.	4g	4g	.	.	.
4g	4g 4G	.	.	.	4g	.	.	4g	4g	.	.	.
=6	=6	=6	=6	=6	=6	=6	=6	=6	=6	=6	=6	=6
4bb	8bb	4ff 4dd	4g	4G	4ff	4G	4G	4dd	4g	4dd	4g	4GG
.	16aa	.	.	.	.	.	.	.	.	.	.	.
.	16bb	.	.	.	.	.	.	.	.	.	.	.
4ccc	4ccc	4ee 4cc	4g	4C	4ee	4C	4C	4ee	4cc	4ee	4cc	4C
8.g	8.g 8.G	4r	4r	4r	8.g	4r	4r	8.g	8.g	4r	4r	4r
16g	16G 16g	.	.	.	16g	.	.	16g	16g	.	.	.
=7	=7	=7	=7	=7	=7	=7	=7	=7	=7	=7	=7	=7
4g	4G 4g	2.r	2.r	2.r	4g	2.r	2.r	4g	4g	2.r	2.r	2.r
4g	4G 4g	.	.	.	4g	.	.	4g	4g	.	.	.
4g	4G 4g	.	.	.	4g	.	.	4g	4g	.	.	.
=8	=8	=8	=8	=8	=8	=8	=8	=8	=8	=8	=8	=8
4bb	8bb	4dd 4ff	4g	4G	4ff	4G	4G	4dd	4g	4dd	4g	4GG
.	16aa	.	.	.	.	.	.	.	.	.	.	.
.	16bb	.	.	.	.	.	.	.	.	.	.	.
4ccc	4ccc	4ee 4cc	4g	4C	4ee	4C	4C	4ee	4cc	4ee	4cc	4C
4ee	4ee	4cc	4a	4A	4cc	4A	4A	4ee	4cc	4r	4r	4r
=9	=9	=9	=9	=9	=9	=9	=9	=9	=9	=9	=9	=9
2aa	8dd	4a	4f	4F	2a	4F	4F	2ff	2dd	2r	2r	2r
.	8ff	.	.	.	.	.	.	.	.	.	.	.
.	8aa	8f	4d	4D	.	4D	4D	.	.	.	.	.
.	8ff	8a	.	.	.	.	.	.	.	.	.	.
8ff	8dd	8f	4g	4G	4b	4G	4G	4dd	4g	4dd	4g	4GG
8dd	8b	8d	.	.	.	.	.	.	.	.	.	.
=10	=10	=10	=10	=10	=10	=10	=10	=10	=10	=10	=10	=10
4cc	4cc	4e	4g	4C	4cc	4C	4C	4cc	4e	4cc	4e	4C
4r	4r	4r	2r	4c	4r	4c	4c	2r	2r	2r	2r	2r
4g	4g	4g	.	4r	4g	4r	4r	.	.	.	.	.
=11	=11	=11	=11	=11	=11	=11	=11	=11	=11	=11	=11	=11
2g	2g	2g	4r	4r	2g	4r	4r	4r	4r	4g	4g	4GG
.	.	.	4e	4e	.	4e	4e	4ee	4cc	2r	2r	2r
8ee	8ee	8ee	4c	4c	8ee	4c	4c	4ee	4cc	.	.	.
8r	8r	8r	.	.	8r	.	.	.	.	.	.	.
=12	=12	=12	=12	=12	=12	=12	=12	=12	=12	=12	=12	=12
2dd	2dd	2dd	4r	4r	2dd	4r	4r	4r	4r	4g	4g	4GG
.	.	.	4B	4B	.	4B	4B	4dd	4g	2r	2r	2r
8gg	8gg	8gg	4G	4G	8gg	4G	4G	4dd	4g	.	.	.
8r	8r	8r	.	.	8r	.	.	.	.	.	.	.
=13	=13	=13	=13	=13	=13	=13	=13	=13	=13	=13	=13	=13
2dd	2dd	2dd	4r	4r	2dd	4r	4r	4r	4r	4dd	4dd	2.r
.	.	.	4f#	4F#	.	4F#	4F#	4dd	4dd	2r	2r	.
8aa	8aa	8aa	4d	4D	8aa	4D	4D	4dd	4dd	.	.	.
8r	8r	8r	.	.	8r	.	.	.	.	.	.	.
=14	=14	=14	=14	=14	=14	=14	=14	=14	=14	=14	=14	=14
2dd	2dd	2dd	4r	4r	2dd	4r	4r	4r	4r	4dd	4dd	2.r
.	.	.	4g	4G	.	4G	4G	4dd	4g	2r	2r	.
8bb	8bb	8bb	4d	4D	8bb	4D	4D	4dd	4g	.	.	.
8r	8r	8r	.	.	8r	.	.	.	.	.	.	.
=15	=15	=15	=15	=15	=15	=15	=15	=15	=15	=15	=15	=15
2.r	2dd	2d	4r	4r	2.r	2.r	2.r	2.r	2.r	2.r	2.r	2.r
.	.	.	4f#	4A	.	.	.	.	.	.	.	.
.	8ccc	8cc	4a	4D	.	.	.	.	.	.	.	.
.	8r	8r	.	.	.	.	.	.	.	.	.	.
=16	=16	=16	=16	=16	=16	=16	=16	=16	=16	=16	=16	=16
2.r	2dd	2d	4r	4r	2.r	2.r	2.r	2.r	2.r	2.r	2.r	2.r
.	.	.	4g	4B	.	.	.	.	.	.	.	.
.	8ddd	8dd	4b	4G	.	.	.	.	.	.	.	.
.	8r	8r	.	.	.	.	.	.	.	.	.	.
=17	=17	=17	=17	=17	=17	=17	=17	=17	=17	=17	=17	=17
2.r	8dd#	4r	4r	4r	2.r	2.r	2.r	2.r	2.r	2.r	2.r	2.r
.	8ee	.	.	.	.	.	.	.	.	.	.	.
.	8cc	8e	4A	4C	.	.	.	.	.	.	.	.
.	8a	8c	.	.	.	.	.	.	.	.	.	.
.	8f#	8A	4d	4D	.	.	.	.	.	.	.	.
.	8a	8c	.	.	.	.	.	.	.	.	.	.
=18	=18	=18	=18	=18	=18	=18	=18	=18	=18	=18	=18	=18
2.r	4g	4B	4d	4GG	2.r	2.r	2.r	2.r	2.r	2.r	2.r	2.r
.	4r	2r	2r	4G	.	.	.	.	.	.	.	.
.	8.gg	.	.	4r	.	.	.	.	.	.	.	.
.	16gg	.	.	.	.	.	.	.	.	.	.	.
=19	=19	=19	=19	=19	=19	=19	=19	=19	=19	=19	=19	=19
2.r	4gg	2.r	2.r	2.r	2.r	2.r	2.r	2.r	2.r	2.r	2.r	2.r
.	4gg	.	.	.	.	.	.	.	.	.	.	.
.	4bb-	.	.	.	.	.	.	.	.	.	.	.
=20	=20	=20	=20	=20	=20	=20	=20	=20	=20	=20	=20	=20
4gg	8cc#	4g	4e	4A	4ee	4A	4A	2.r	2.r	2.r	2.r	2.r
.	16b	.	.	.	.	.	.	.	.	.	.	.
.	16cc#	.	.	.	.	.	.	.	.	.	.	.
4ff	4dd	4f	4d	4D	4dd	4D	4D	.	.	.	.	.
4r	8.ff	4r	4r	4r	4r	4r	4r	.	.	.	.	.
.	16ff	.	.	.	.	.	.	.	.	.	.	.
=21	=21	=21	=21	=21	=21	=21	=21	=21	=21	=21	=21	=21
2.r	4ff	2.r	2.r	2.r	2.r	2.r	2.r	2.r	2.r	2.r	2.r	2.r
.	4ff	.	.	.	.	.	.	.	.	.	.	.
.	4aa	.	.	.	.	.	.	.	.	.	.	.
=22	=22	=22	=22	=22	=22	=22	=22	=22	=22	=22	=22	=22
4ff	8b	4f	4d	4G	4dd	4G	4G	2r	2r	2.r	2.r	2.r
.	16a	.	.	.	.	.	.	.	.	.	.	.
.	16b	.	.	.	.	.	.	.	.	.	.	.
4ee	4cc	4e	4c	4C	4cc	4C	4C	.	.	.	.	.
8.g	8.G 8.g	4r	4r	4r	8.g	4r	4r	8.g	8.g	.	.	.
16g	16g 16G	.	.	.	16g	.	.	16g	16g	.	.	.
=23	=23	=23	=23	=23	=23	=23	=23	=23	=23	=23	=23	=23
4g	4G 4g	2.r	2.r	2.r	4g	2.r	2.r	4g	4g	2.r	2.r	2.r
4g	4G 4g	.	.	.	4g	.	.	4g	4g	.	.	.
4g	4G 4g	.	.	.	4g	.	.	4g	4g	.	.	.
=24	=24	=24	=24	=24	=24	=24	=24	=24	=24	=24	=24	=24
4bb	8bb	4ff 4dd	4g	4G	4ff	4G	4G	4dd	4g	4dd	4g	4GG
.	16aa	.	.	.	.	.	.	.	.	.	.	.
.	16bb	.	.	.	.	.	.	.	.	.	.	.
4ccc	4ccc	4ee 4cc	4g	4C	4ee	4C	4C	4ee	4cc	4ee	4cc	4C
8.cc	8.c	4r	4r	4r	8.cc	4r	4r	8.cc	8.c	4r	4r	4r
16cc	16c	.	.	.	16cc	.	.	16cc	16c	.	.	.
=25	=25	=25	=25	=25	=25	=25	=25	=25	=25	=25	=25	=25
4cc	4c	2.r	2.r	2.r	4cc	2.r	2.r	4cc	4c	2.r	2.r	2.r
4cc	4c	.	.	.	4cc	.	.	4cc	4c	.	.	.
4cc	4c	.	.	.	4cc	.	.	4cc	4c	.	.	.
=26	=26	=26	=26	=26	=26	=26	=26	=26	=26	=26	=26	=26
4bb-	8bb-	8gg	4c	4C	4ee	4C	4C	4cc	4c	4cc	4c	4C
.	16aa	16ff	.	.	.	.	.	.	.	.	.	.
.	16bb-	16gg	.	.	.	.	.	.	.	.	.	.
4aa	4aa	4ff	4c	4F	4ff	4F	4F	4cc	4c	4cc	4c	4C
8ccc	8ccc	8aa	4c	4F	8aa	4F	4F	4cc	4c	4r	4r	4r
8aa	8aa	8ff	.	.	8ff	.	.	.	.	.	.	.
=27	=27	=27	=27	=27	=27	=27	=27	=27	=27	=27	=27	=27
4gg	4gg	4ee	4g	4G	4ee	4G	4G	2ee	2cc	4gg	4g	4GG
8gg	8gg	8ee	4g	4G	8ee	4G	4G	.	.	4ee	4cc	4GG
8ee	8ee	8cc	.	.	8cc	.	.	.	.	.	.	.
8ff	8ff	8dd	8g	4G	8dd	4G	4G	4dd	4g	4dd	4g	4GG
8dd	8dd	8b	8f	.	8b	.	.	.	.	.	.	.
=28	=28	=28	=28	=28	=28	=28	=28	=28	=28	=28	=28	=28
4cc	4cc	4cc	4e	4C	4cc	4C	4C	4cc	4e	4cc	4e	4C
2r	4r	4r	2r	4c	2r	4c	4c	2r	2r	2r	2r	2r
.	4gg	4g	.	4r	.	4r	4r	.	.	.	.	.
=29	=29	=29	=29	=29	=29	=29	=29	=29	=29	=29	=29	=29
2.r	2gg	2g	4r	4r	2.r	2.r	2.r	2.r	2.r	2.r	2.r	2.r
.	.	.	4d	4B	.	.	.	.	.	.	.	.
.	8ee	8e	8e	8c	.	.	.	.	.	.	.	.
.	8r	8r	8r	8r	.	.	.	.	.	.	.	.
=30	=30	=30	=30	=30	=30	=30	=30	=30	=30	=30	=30	=30
2.r	2ee	2e	4r	4r	2.r	2.r	2.r	2.r	2.r	2.r	2.r	2.r
.	.	.	4B	4G#	.	.	.	.	.	.	.	.
.	8cc#	8c#	8e	8A	.	.	.	.	.	.	.	.
.	8r	8r	8r	8r	.	.	.	.	.	.	.	.
=31	=31	=31	=31	=31	=31	=31	=31	=31	=31	=31	=31	=31
2aa	8dd	8d	4a	4F	2a	4F	4F	2r	2r	2.r	2.r	2.r
.	8ff	8f	.	.	.	.	.	.	.	.	.	.
.	8aa	8a	8f	4D	.	4D	4D	.	.	.	.	.
.	8ff	8f	8d	.	.	.	.	.	.	.	.	.
8ff	8dd	8d	8f	4G	4b	4G	4G	4dd	4g	.	.	.
8dd	8b	8B	8d	.	.	.	.	.	.	.	.	.
=32	=32	=32	=32	=32	=32	=32	=32	=32	=32	=32	=32	=32
4cc	4cc	4c	4c	4C	4cc	4C	4C	4cc	4e	2.r	2.r	2.r
4r	4r	2r	2r	2r	2r	2r	2r	2r	2r	.	.	.
8g	8G	.	.	.	.	.	.	.	.	.	.	.
8cc	8c	.	.	.	.	.	.	.	.	.	.	.
=33	=33	=33	=33	=33	=33	=33	=33	=33	=33	=33	=33	=33
8b	8B	4G	4E	4C	2.r	2.r	2.r	2.r	2.r	2.r	2.r	2.r
8cc	8c	.	.	.	.	.	.	.	.	.	.	.
8dd	8d	2r	2r	2r	.	.	.	.	.	.	.	.
8cc	8c	.	.	.	.	.	.	.	.	.	.	.
8ee	8e	.	.	.	.	.	.	.	.	.	.	.
8cc	8c	.	.	.	.	.	.	.	.	.	.	.
=34	=34	=34	=34	=34	=34	=34	=34	=34	=34	=34	=34	=34
4g	4G	4r	4r	4r	2.r	2.r	2.r	2.r	2.r	2.r	2.r	2.r
4r	4r	4G	4C	4E	.	.	.	.	.	.	.	.
8g	8G	4G	4E	4C	.	.	.	.	.	.	.	.
8dd	8d	.	.	.	.	.	.	.	.	.	.	.
=35	=35	=35	=35	=35	=35	=35	=35	=35	=35	=35	=35	=35
8cc#	8c#	4G	4F	4BB	2.r	2.r	2.r	2.r	2.r	2.r	2.r	2.r
8dd	8d	.	.	.	.	.	.	.	.	.	.	.
8ee	8e	2r	2r	2r	.	.	.	.	.	.	.	.
8dd	8d	.	.	.	.	.	.	.	.	.	.	.
8ff	8f	.	.	.	.	.	.	.	.	.	.	.
8dd	8d	.	.	.	.	.	.	.	.	.	.	.
=36	=36	=36	=36	=36	=36	=36	=36	=36	=36	=36	=36	=36
4g	4G	4r	4r	4r	2.r	2.r	2.r	2.r	2.r	2.r	2.r	2.r
4r	4r	4G	4D	4BB	.	.	.	.	.	.	.	.
8g	8G	4G	4D	4GG	.	.	.	.	.	.	.	.
8ff	8f	.	.	.	.	.	.	.	.	.	.	.
=37	=37	=37	=37	=37	=37	=37	=37	=37	=37	=37	=37	=37
8ff	8f	2.c	2.C	4C	2.r	2.r	2.r	2.r	2.r	2.r	2.r	2.r
8ee	8e	.	.	.	.	.	.	.	.	.	.	.
8dd	8d	.	.	4B-	.	.	.	.	.	.	.	.
8cc	8c	.	.	.	.	.	.	.	.	.	.	.
8ff	8f	.	.	8A	.	.	.	.	.	.	.	.
8aa	8a	.	.	8F	.	.	.	.	.	.	.	.
=38	=38	=38	=38	=38	=38	=38	=38	=38	=38	=38	=38	=38
8gg	8g	4c	4C	4E	2.r	2.r	2.r	2.r	2.r	2.r	2.r	2.r
8ccc	8cc	.	.	.	.	.	.	.	.	.	.	.
8bb	8b	4r	4r	4r	.	.	.	.	.	.	.	.
8ccc	8cc	.	.	.	.	.	.	.	.	.	.	.
8bb	8b	4e	4G	4C	.	.	.	.	.	.	.	.
8ccc	8cc	.	.	.	.	.	.	.	.	.	.	.
=39	=39	=39	=39	=39	=39	=39	=39	=39	=39	=39	=39	=39
8gg	8g	4d	4B	4G	2.r	2.r	2.r	2.r	2.r	2.r	2.r	2.r
8gg	8g	.	.	.	.	.	.	.	.	.	.	.
8ff#	8f#	4r	4r	4r	.	.	.	.	.	.	.	.
8gg	8g	.	.	.	.	.	.	.	.	.	.	.
8ff#	8f#	4B	4F	4GG	.	.	.	.	.	.	.	.
8gg	8g	.	.	.	.	.	.	.	.	.	.	.
=40	=40	=40	=40	=40	=40	=40	=40	=40	=40	=40	=40	=40
4cc	4c	4c	4E	4C	2.r	2r	2.r	2.r	2.r	2.r	2.r	2.r
2r	4r	4r	4r	4c	.	.	.	.	.	.	.	.
.	8cc	4g	8e	4c	.	8c	.	.	.	.	.	.
.	8ee	.	8c	.	.	8e	.	.	.	.	.	.
=41	=41	=41	=41	=41	=41	=41	=41	=41	=41	=41	=41	=41
2.r	4dd	4g	4d	4B	2.r	4d	2.r	2.r	2.r	2.r	2.r	2.r
.	8cc	4r	4r	4r	.	8c	.	.	.	.	.	.
.	8b	.	.	.	.	8B	.	.	.	.	.	.
.	8a	4d	8c	4F#	.	8A	.	.	.	.	.	.
.	8cc	.	8A	.	.	8c	.	.	.	.	.	.
=42	=42	=42	=42	=42	=42	=42	=42	=42	=42	=42	=42	=42
2.r	4b	4d	4G	4G	2.r	4B	2.r	2.r	2.r	2.r	2.r	2.r
.	8a	8c	4r	4r	.	8A	.	.	.	.	.	.
.	8g	8B	.	.	.	8G	.	.	.	.	.	.
.	8g	4g	8e	4c	.	8G	.	.	.	.	.	.
.	8ee	.	8c	.	.	8e	.	.	.	.	.	.
=43	=43	=43	=43	=43	=43	=43	=43	=43	=43	=43	=43	=43
2.r	4dd	4g	4d	4B	2.r	4d	2.r	2.r	2.r	2.r	2.r	2.r
.	8cc	4d	4G	4G	.	8c	.	.	.	.	.	.
.	8b	.	.	.	.	8B	.	.	.	.	.	.
.	8a	4d	8c	4F#	.	8A	.	.	.	.	.	.
.	8cc	.	8A	.	.	8c	.	.	.	.	.	.
=44	=44	=44	=44	=44	=44	=44	=44	=44	=44	=44	=44	=44
2r	4b	4d	4G	4G	2.r	4B	2.r	2.r	2.r	2.r	2.r	2.r
.	8a	8c	4r	4r	.	8A	.	.	.	.	.	.
.	8g	8B	.	.	.	8G	.	.	.	.	.	.
8dd	8dd	8d	8G	4B	.	8d	.	.	.	.	.	.
8gg	8gg	8g	8d	.	.	8g	.	.	.	.	.	.
=45	=45	=45	=45	=45	=45	=45	=45	=45	=45	=45	=45	=45
8gg	8gg	8g	4c	4A	2.r	8g	2.r	2.r	2.r	2.r	2.r	2.r
8ff#	8ff#	8f#	.	.	.	8f#	.	.	.	.	.	.
8ff#	8ff#	8f#	4B	4G	.	8f#	.	.	.	.	.	.
8ee	8ee	8e	.	.	.	8e	.	.	.	.	.	.
8ee	8ee	8e	4A	4F#	.	8e	.	.	.	.	.	.
8dd	8dd	8d	.	.	.	8d	.	.	.	.	.	.
=46	=46	=46	=46	=46	=46	=46	=46	=46	=46	=46	=46	=46
8dd	8dd	8d	4G	4E	2.r	8d	2.r	2.r	2.r	2.r	2.r	2.r
8ccc	8cc	8c	.	.	.	8c	.	.	.	.	.	.
8ccc	8cc	8c	4F#	4D	.	8c	.	.	.	.	.	.
8bb	8b	8B	.	.	.	8B	.	.	.	.	.	.
8bb	8b	8B	4E	4C	.	8B	.	.	.	.	.	.
8aa	8a	8A	.	.	.	8A	.	.	.	.	.	.
=47	=47	=47	=47	=47	=47	=47	=47	=47	=47	=47	=47	=47
8gg	8g	8G	4D	4BB	2.r	8G	2.r	2.r	2.r	2.r	2.r	2.r
8bb	8b	8d	.	.	.	8B	.	.	.	.	.	.
8aa	8a	8c	4E	4C	.	8A	.	.	.	.	.	.
8ccc	8cc	8e	.	.	.	8c	.	.	.	.	.	.
8ff#	8f#	8A	4D	4D	.	8F#	.	.	.	.	.	.
8aa	8a	8c	.	.	.	8A	.	.	.	.	.	.
=48	=48	=48	=48	=48	=48	=48	=48	=48	=48	=48	=48	=48
4gg	4g	4B	4D	4GG	2.r	4G	2.r	2.r	2.r	2.r	2.r	2.r
4r	4r	2r	2r	4G	.	2r	.	.	.	.	.	.
8g	8G	.	.	4r	.	.	.	.	.	.	.	.
8cc	8c	.	.	.	.	.	.	.	.	.	.	.
=49	=49	=49	=49	=49	=49	=49	=49	=49	=49	=49	=49	=49
8b	8B	4G	4E	4C	2.r	2r	2.r	2.r	2.r	2.r	2.r	2.r
8cc	8c	.	.	.	.	.	.	.	.	.	.	.
8dd	8d	2r	2r	2r	.	.	.	.	.	.	.	.
8cc	8c	.	.	.	.	.	.	.	.	.	.	.
8ee	8e	.	.	.	.	8G	.	.	.	.	.	.
8cc	8c	.	.	.	.	8c	.	.	.	.	.	.
=50	=50	=50	=50	=50	=50	=50	=50	=50	=50	=50	=50	=50
4g	4G	4r	4r	4r	2.r	8B	2.r	2.r	2.r	2.r	2.r	2.r
.	.	.	.	.	.	8c	.	.	.	.	.	.
4r	4r	4G	4C	4E	.	8d	.	.	.	.	.	.
.	.	.	.	.	.	8c	.	.	.	.	.	.
8g	8G	4G	4E	4C	.	8e	.	.	.	.	.	.
8dd	8d	.	.	.	.	8c	.	.	.	.	.	.
=51	=51	=51	=51	=51	=51	=51	=51	=51	=51	=51	=51	=51
8cc#	8c#	4G	4F	4BB	2.r	4G	2.r	2.r	2.r	2.r	2.r	2.r
8dd	8d	.	.	.	.	.	.	.	.	.	.	.
8ee	8e	2r	2r	2r	.	4r	.	.	.	.	.	.
8dd	8d	.	.	.	.	.	.	.	.	.	.	.
8ff	8f	.	.	.	.	8G	.	.	.	.	.	.
8dd	8d	.	.	.	.	8d	.	.	.	.	.	.
=52	=52	=52	=52	=52	=52	=52	=52	=52	=52	=52	=52	=52
4g	4G	4r	4r	4r	2.r	8c#	2.r	2.r	2.r	2.r	2.r	2.r
.	.	.	.	.	.	8d	.	.	.	.	.	.
4r	4r	4G	4D	4BB	.	8e	.	.	.	.	.	.
.	.	.	.	.	.	8d	.	.	.	.	.	.
8g	8G	4G	4G	4GG	.	8f	.	.	.	.	.	.
8ff	8f	.	.	.	.	8d	.	.	.	.	.	.
=53	=53	=53	=53	=53	=53	=53	=53	=53	=53	=53	=53	=53
8ff	8f	2.c	4G	4C	2.r	[2.c	2.r	2.r	2.r	2.r	2.r	2.r
8ee	8e	.	.	.	.	.	.	.	.	.	.	.
8dd	8d	.	8F	4B-	.	.	.	.	.	.	.	.
8cc	8c	.	8E	.	.	.	.	.	.	.	.	.
8ff	8f	.	8A	8A	.	.	.	.	.	.	.	.
8aa	8a	.	8F	8F	.	.	.	.	.	.	.	.
=54	=54	=54	=54	=54	=54	=54	=54	=54	=54	=54	=54	=54
8gg	8g	4c	4C	4E	2.r	8c]	2.r	2.r	2.r	2.r	2.r	2.r
8ccc	8cc	.	.	.	.	8e	.	.	.	.	.	.
8bb	8b	4r	4r	4r	.	8d	.	.	.	.	.	.
8ccc	8cc	.	.	.	.	8e	.	.	.	.	.	.
8bb	8b	4e	4G	4C	.	8d	.	.	.	.	.	.
8ccc	8cc	.	.	.	.	8e	.	.	.	.	.	.
=55	=55	=55	=55	=55	=55	=55	=55	=55	=55	=55	=55	=55
8gg	8g	4d	4G	4G	2.r	8B	2.r	2.r	2.r	2.r	2.r	2.r
8gg	8g	.	.	.	.	8B	.	.	.	.	.	.
8ff#	8f#	4r	4r	4r	.	8A#	.	.	.	.	.	.
8gg	8g	.	.	.	.	8B	.	.	.	.	.	.
8ff#	8f#	4d	4F	4GG	.	8A#	.	.	.	.	.	.
8gg	8g	.	.	.	.	8B	.	.	.	.	.	.
=56	=56	=56	=56	=56	=56	=56	=56	=56	=56	=56	=56	=56
4cc	4c	4c	4E	4C	2.r	4c	2.r	2.r	2.r	2.r	2.r	2.r
2r	2r	2r	2r	2r	.	2r	.	.	.	.	.	.
==	==	==	==	==	==	==	==	==	==	==	==	==
*-	*-	*-	*-	*-	*-	*-	*-	*-	*-	*-	*-	*-
!!!RWG1: This file contains only pitch and duration data.
!!!RWG2: Transposing instruments are not transposed.
!!!RWG3: Spines may have incompatible meters.
!!!RWG4: Durations of rests and tied notes may be interpreted.
!!!RWG: Key is interpreted using the Humdrum key tool.
!!!OPT: Linz
!!!AFT: stage1
!!!END: 1997/04/15
!!format changes:
!!content changes:
!!public access: complete
!!!KEY: 414566923
!!!EMD: Converted from MuseData to Humdrum Dec 16, 2000, by Andreas Kornstaedt using muse2kern.
